X: 1
T: Brendan Theme, The
M: 4/4
L: 1/8
R: hornpipe
K: Dmaj
|:DE FA A4 | AG/F/ G4 G2 | gd e4 ed | ce d4 d2 |
de f2 fg e/d/c/B/ | dG G2 GB dB | c2 cE/G/ BG A2 :|
B4 B2 dB/A/ | G4 G4 | A4 A2 BA | GA B4 B2  |
G2 g4 g2  |de d2 d4 | de d4 d2 |B/A/G A2 A4 |
d2 a2 ag/f/ g2 | gd BG e2 ec | AG A4 A2 ||
B4 B2 dB/A/ | G4 G4 | A4 A/G/F/A/ D2 |D2 D2 D4 ||
|:DE FA A4 | AG/F/ G4 G2 | gd e4 ed | ce d4 d2 |
de f2 fg e/d/c/B/ | dG G2 GB dB | c2 cE/G/ BG A2 :|
B4 B2 dB/A/ | G4 G4 | A4 A2 BA | GA B4 B2  |
G2 g4 g2  |de d2 d4 | de d4 d2 |B/A/G A2 A4 |
d2 a2 ag/f/ g2 | gd BG e2 ec | AG A4 A2 ||
B4 B2 dB/A/ | G4 G4 | A4 AG/F/ G2 |G2 G2 G4 ||
